X: 414
T: Leap Year
N:"Moderate"
N:Irish title: blia.dain .bisi.g
B:O'Neill's 414
Z:Transcribed by henrik.norbeck@mailbox.swipnet.se
M:6/8
L:1/8
K:G
(B/c/) | d>ed de=f | fee ege/e/ | dBG GEF | AGE ED (B/c/) |
d>ed de=f | fee eHge/e/ | dBG GEF | G>AG G2 ||
(B/c/) | ded efg | fed {f}edc | dcB {d}cBA | BAG {g}FED |
BAG {d}cBA | dcB Hege | dBG {A}GEF | G3 z2 ||


